X: 1
T: MacDonald's March to the Wars
B: Scots Guards Vol. I
Z: arr. T. Traub 5-4-99
R: jig
M: 6/8
K: A
L: 1/8
c/e/ |\
"A"a2 A A2 A | c2 c c>BA | c<ef c<ec | "B7"c>BA "E7"B2 e |\
"A"a2 A A2 A | c2 c c>BA | "A"c<ef c<ec | "G"B<=GB "A"A2 :|
f |\
"A"e>fg a2 g | "D"f>df "A"e>dc | "A"e>fg a2 g | "D"f>df "E"e3 |\
"A"e>fg a2 e | "D"faf "A"ecA | "A"c<ef cec | "G"B<=GB "A"A2 |]
f |\
"A"e>fg a2 g | "D"f>df "A"e>dc | "A"e>fg a2 a | "D"f2 f "E"e2 g |\
"A"a2 "A7"a a2 e | "D"f<af "A"ecA | "A"c<ef c<ec | "G"B<=GB "A"A2 |]
